X:2379
T:C'est dans dix ans, à la fontaine - Tour
C:Loffet tab11.gif
M:4/4
L:1/8
K:C
c2cA c3e|d2e2 c2A2|c2cA c2e2|dded c4:|\
|:e2eg e3d|c2Ac d4|e2eg e2d2|c2AB c4:|


